Carto/POI/SVG/harbor_solid_24px.svg

<svg width="24" height="24" viewBox="0 0 24 24" fill="none" xmlns="http://www.w3.org/2000/svg">
<path d="M22 13.5L19.5 9.50002L17 13.5H18.5C18.5 16.71 16.42 18.18 13.41 18.5L13.16 12H16V10H13.09L13 8.32001C13.7317 8.07551 14.3526 7.57866 14.7516 6.91834C15.1506 6.25801 15.3017 5.47728 15.1778 4.71578C15.054 3.95428 14.6633 3.26168 14.0756 2.76184C13.4879 2.26201 12.7415 1.98755 11.97 1.98755C11.1985 1.98755 10.4521 2.26201 9.86444 2.76184C9.27674 3.26168 8.88602 3.95428 8.76216 4.71578C8.6383 5.47728 8.78937 6.25801 9.18837 6.91834C9.58737 7.57866 10.2083 8.07551 10.94 8.32001L10.91 10H8V12H10.84L10.59 18.5C7.59 18.18 5.5 16.71 5.5 13.5H7L4.5 9.50002L2 13.5H3.5V14C3.5 17.42 5.59 18.87 8.59 20.16C9.63 20.61 12 22 12 22C12 22 14.37 20.61 15.41 20.16C18.41 18.87 20.5 17.42 20.5 14V13.5H22ZM10.25 5.25002C10.25 4.9039 10.3526 4.56555 10.5449 4.27777C10.7372 3.98998 11.0105 3.76568 11.3303 3.63323C11.6501 3.50077 12.0019 3.46612 12.3414 3.53364C12.6809 3.60117 12.9927 3.76784 13.2374 4.01258C13.4822 4.25732 13.6489 4.56914 13.7164 4.90861C13.7839 5.24807 13.7492 5.59994 13.6168 5.91971C13.4843 6.23948 13.26 6.51279 12.9722 6.70509C12.6845 6.89738 12.3461 7.00002 12 7.00002C11.5367 6.99739 11.0931 6.81217 10.7655 6.48455C10.4378 6.15693 10.2526 5.71333 10.25 5.25002Z" fill="#0F1621"/>
</svg>

<svg xmlns="http://www.w3.org/2000/svg" width="24" height="24" viewBox="0 0 24 24"><rect width="24" height="24" style="fill:none"/><path d="M22,13.5l-2.5-4-2.5,4h1.5c0,3.21-2.08,4.68-5.09,5L13.16,12H16V10H13.09L13,8.32a3.25,3.25,0,1,0-2.06,0L10.91,10H8v2h2.84l-.25,6.5c-3-.32-5.09-1.79-5.09-5H7l-2.5-4L2,13.5H3.5V14c0,3.42,2.09,4.87,5.09,6.16C9.63,20.61,12,22,12,22s2.37-1.39,3.41-1.84c3-1.29,5.09-2.74,5.09-6.16v-.5ZM10.25,5.25A1.75,1.75,0,1,1,12,7,1.76,1.76,0,0,1,10.25,5.25Z"/></svg>
